X:107
T:Miss Johnsons
O:No 107 Wm Clarke MS  Feltwell, Norfolk
N:Indistinct pencil writing on page
I:abc2nwc
M:2/2
L:1/8
K:G
B|:B3/2c/2de dBBd|dBgd bg g2|
B3/2c/2de dBBd|cAag fefd:|
|:BABd G2DB|GBDB GBDB|cBAG G2BG|
FGAB cAdc|BABd G2DB|GBDB GBDB|
dBcA BGAF|DEFG ABBG:|

